packages/layout-default/public/icons/file-normal.svg

<svg width="32" height="30" viewBox="0 0 32 30" fill="none" xmlns="http://www.w3.org/2000/svg">
<path d="M5 2C5 0.895431 5.89543 0 7 0H25C26.1046 0 27 0.895431 27 2V18.8868C27 19.3268 26.8549 19.7545 26.5872 20.1036L19.6004 29.2169C19.2219 29.7105 18.6353 30 18.0132 30H7C5.89543 30 5 29.1046 5 28V2Z" fill="url(#paint0_linear_56_3187)"/>
<path d="M25 19.5652H19V27.3913" stroke="#F4F4F4"/>
<defs>
<linearGradient id="paint0_linear_56_3187" x1="16" y1="0" x2="16" y2="30" gradientUnits="userSpaceOnUse">
<stop stop-color="#0DDFF6"/>
<stop offset="1" stop-color="#17A3EC"/>
</linearGradient>
</defs>
</svg>

<?xml version="1.0" encoding="utf-8"?>
<!-- Generator: Adobe Illustrator 27.5.0, SVG Export Plug-In . SVG Version: 6.00 Build 0)  -->
<svg width="32" height="30" version="1.1" id="Layer_1" xmlns="http://www.w3.org/2000/svg" xmlns:xlink="http://www.w3.org/1999/xlink" x="0px" y="0px"
	 viewBox="0 0 32 30" style="enable-background:new 0 0 32 30;" xml:space="preserve">

<path class="st0" d="M5,2c0-1.1,0.9-2,2-2h18c1.1,0,2,0.9,2,2v16.9c0,0.4-0.1,0.9-0.4,1.2l-7,9.1c-0.4,0.5-1,0.8-1.6,0.8H7
	c-1.1,0-2-0.9-2-2V2z" fill="#3366FF"/>
<path class="st1" d="M25,19.6h-6v7.8" fill="#fff"/>
</svg>
